X:6938
T:Hearts &c. JC.074
T:Hearts of Oak,aka. JC.074
M:C
L:1/8
Q:100
S:John Clare,Poet,Helpston. (1793-1864)
R:Air
O:England
A:Northamptonshire
N:
Z:P Headford
K:D
A2|d2ddd2fe|d2cBA2zA|B2Bcd2de|f2gef2zA|d2FGA2Bc|!
d2GGA2ze|f2eda2cd|e2eEA2e>e|e2c>de2f>f|f2d>ef2zf|!
edcf dBz2|d<dA2F<DzA|Bcdef2(ed)|a2Acd2z2||
